X: 3
T: The Devil's Dream
R: hornpipe
M: 4/4
L: 1/8
K: Amix
[| {ag}a2 e>f {ag}a2 e>f | {ag}a2 {g}a2 f>e {g}d>c |{g}B>{d}B {e}B>c {g}d>c {g}d>e | {g}f>e {g}f>g a>g {a}f>e | {ag}a2 e>f {ag}a2 e>f | {ag}a2 {g}a2 f>e {g}d>c |{g}f>e {g}d>c {g}d>c{g}B< A |{g}G2 {d}B2 {G}A2 |] [| {g}e>d | {g}c<e{g}A>e {g}c<e{g}A>e | {g}c>A{g}e<c {g}f>e {g}d>c |{g}B>{d}B {e}B>c {g}d>c {g}d>e | {g}f>e {g}f>g a>g {a}f>e | {g}c<e{g}A>e {g}c<e{g}A>e | {g}c>A{g}e<c {g}f>e {g}d>c |{g}f>e {g}d>c {g}d>c{g}B< A | {g}G2 {d}B2 {G}A2 |]


Tune 259	Setting 24294

